svg/fluentui-system-icons/ic_fluent_organization_32_regular.svg

<svg width="32" height="32" viewBox="0 0 32 32" fill="none" xmlns="http://www.w3.org/2000/svg">
<path d="M16 2C13.2386 2 11 4.23858 11 7C11 9.41852 12.7171 11.436 14.9988 11.8997V14.9988H9.73343C8.22393 14.9988 7.00024 16.2225 7.00024 17.732V20.1C4.71788 20.5631 3 22.581 3 25C3 27.7614 5.23858 30 8 30C10.7614 30 13 27.7614 13 25C13 22.5811 11.2824 20.5634 9.00024 20.1001V17.732C9.00024 17.3271 9.3285 16.9988 9.73343 16.9988H22.2671C22.672 16.9988 23.0002 17.3271 23.0002 17.732V20.1C20.7179 20.5631 19 22.581 19 25C19 27.7614 21.2386 30 24 30C26.7614 30 29 27.7614 29 25C29 22.5811 27.2824 20.5634 25.0002 20.1001V17.732C25.0002 16.2225 23.7766 14.9988 22.2671 14.9988H16.9988V11.9002C19.2816 11.4374 21 9.4194 21 7C21 4.23858 18.7614 2 16 2ZM13 7C13 5.34315 14.3431 4 16 4C17.6569 4 19 5.34315 19 7C19 8.65685 17.6569 10 16 10C14.3431 10 13 8.65685 13 7ZM5 25C5 23.3431 6.34315 22 8 22C9.65685 22 11 23.3431 11 25C11 26.6569 9.65685 28 8 28C6.34315 28 5 26.6569 5 25ZM24 22C25.6569 22 27 23.3431 27 25C27 26.6569 25.6569 28 24 28C22.3431 28 21 26.6569 21 25C21 23.3431 22.3431 22 24 22Z" fill="#212121"/>
</svg>

<svg xmlns="http://www.w3.org/2000/svg" width="32" height="32"><path d="M16 2a5 5 0 0 0-1.001 9.9v3.099H9.733A2.733 2.733 0 0 0 7 17.732V20.1A5.002 5.002 0 0 0 8 30a5 5 0 0 0 1-9.9v-2.368c0-.405.329-.733.733-.733h12.534c.405 0 .733.328.733.733V20.1a5.002 5.002 0 0 0 1 9.9 5 5 0 0 0 1-9.9v-2.368a2.733 2.733 0 0 0-2.733-2.733H17V11.9A5.002 5.002 0 0 0 16 2Zm-3 5a3 3 0 1 1 6 0 3 3 0 0 1-6 0ZM5 25a3 3 0 1 1 6 0 3 3 0 0 1-6 0Zm19-3a3 3 0 1 1 0 6 3 3 0 0 1 0-6Z"/></svg>
